X:1
T:Praeludium
T:Praeludium
T:(originally for lute)
T:Jean-Baptiste Besard(us) (*1567)
T:from Thesaurus harmonicus, 1603
C:Jean-Baptiste Besardus (*1567)
Z:from Thesaurus harmonicus, 1603
%%score { 1 { ( 2 3 ) | ( 4 5 ) } }
L:1/8
Q:1/4=43
M:4/4
K:Ab
V:1 alto nm="Execution" snm="Ex."
V:2 treble nm="Cembalo"
V:3 treble 
V:4 bass 
V:5 bass 
V:1
!mp! !arpeggio![F,,-C,-F,-A,C-F]3/2 [F,,C,F,C]/ z2 !arpeggio![C,-G,-C-=E-G-c]3/2 [C,-G,CEG]/ C,/ z/ z | %1
 z2 !arpeggio![C,G,C-=E-] [CE] !arpeggio![A,,E,-A,-C-_E-A-]/ [E,A,CEA]3/2 !arpeggio![E,-B,-E-G]/ [E,B,E]3/2 | %2
 !arpeggio![A,-C-E-A]3/2 [A,-CE]/ A,/ z/ z z4 | z8 | %4
[Q:1/4=43] z8[Q:1/4=42]"^.5"[Q:1/4=40]"^.1"[Q:1/4=37]"^.9"[Q:1/4=43] | %5
 z2 !arpeggio![F,-C-F-A-c]3/2 [F,-C-FA]/ [F,C]2 z2 | z8 | %7
[Q:1/4=43] !arpeggio![B,,B,-D-F-][Q:1/4=42]"^.9" [B,DF][Q:1/4=42]"^.5" z2[Q:1/4=40] !arpeggio!!fermata![C,-G,C-=E][Q:1/4=37]"^.8" [C,C]3[Q:1/4=41]"^.5"[Q:1/4=34]"^.7"[Q:1/4=30]"^.8" | %8
[Q:1/4=26] !arpeggio!!fermata![F,,-C,-F,-C-F-B]2 [F,,C,F,CF=A]6 |] %9
V:2
 [A,F]>G AA/B/ c>B AG- | G/F/-F [C=E]2 [C_EA]2 G/A/B/G/ | A>B c2 z/ F/G/A/- A/A/B/G/ | %3
 z/ B/A/G/ A2 z/ F/E/=D/ E2 | =DC D2 (C>D E2) | !tenuto![CF]!tenuto![CG] c>B A/G/F/E/ F/G/A- | %6
 A/A/B/A/ G/F/G F>G AF | F2 z2 =EFEB | !fermata![CF=A]8 |] %9
V:3
 C2 x2 [=EG]2 x2 | x6 E2 | E2 x6 | x8 |[I:staff +1] =B,[I:staff -1]C- C/C/=B, x2 C2 | x2 [FA]2 x4 | %6
 x8 | [B,D]2 x2 C4 | x8 |] %9
V:4
 [F,,C,F,]2 z/ F,3/2 [C,-G,C]2 C,/CB,/ | A,G,/F,/ G,B,, [E,A,]2 B,2 | [A,-C]2 A,/B,/C/=D/ E2 E,2 | %3
 F,2- F,/G,/A,/B,/ C2 C,/=D,/E,/F,/ | G,E, F,G, A,3 G, | !tenuto![F,A,]!tenuto![=E,G,] [F,C]4 D>C | %6
 B,2 [C=E]>B, A,/G,/F,- F,/_E,/D,/C,/ | B,,A,,G,,F,, G,F, G,2 | !fermata![F,,C,F,]8 |] %9
V:5
 x8 | x2 C,B,, A,,/B,,/C,/A,,/ E,2 | x8 | x8 | x8 | x8 | x8 | x4 C,4 | x8 |] %9

